!!!OTL: KOMM ICH EINST AUS FREMDEN LANDEN
!!!ARE: Europa, Mitteleuropa, Deutschland, Hessen, Lahn - Tal
!!!SCT: E0788
!!!YEM: Copyright 1995, estate of Helmut Schaffrath.
**kern
*ICvox
*Ivox
*M6/8
*k[f#]
*G:
=1
{4b
8dd
4b
8dd
=2
8g
8b
8dd
4ee
8dd}
=3
{4cc
8a
4a
8a
=4
8a
8b
8cc
4ee
8dd}
=5
{4b
8b
4b
8b
=6
8b
8cc
8dd
4.gg}
=7
{4aa
8gg
4ff#
8ee
=8
4dd
8cc
4b}
{16dd
16dd
=9
4gg
16b
16b
4b
16b
16b
=10
8b
8cc
8dd
4ee}
{16dd
16dd
=11
4cc
16a
16a
4a
16a
16a
=12
8a
8b
8cc
4.ee}
=13
{4b
8b
4b
8b
=14
8b
8cc
8dd
4.gg}
=15
{4aa
8gg
4ff#
8ee
=16
4dd
8cc
4.b}
==
!!!AGN: Abschieds - Lied, Liebe
!!!ONB: ESAC (Essen Associative Code) Database: ERK2
!!!AMT: compound duple
!!!AIN: vox
!!!EED: Helmut Schaffrath
!!!EEV: 1.0
*-
